X: 229
T: The White Horse Riders Said This
C: Teton Sioux band 1911-1914
N: Derived from sioux224.krn
O: South Dakota, U.S.A.
N: Teton Sioux Music by Frances Densmore, 1918
Z: transcribed to **kern format by Craig Sapp
L: 1/8
M: 2/4
Q: 1/4=58
K: Eb clef=bass
%%linebreak <none>
G2G3/ F/ [I:setbarnb 2]| 
F> FF2 | 
F> D D3/ F/ ||  
[M:3/4]D2C> C C3/ C/ | 
C6 ||  
[M:2/4](3D D DF2 | 
F> DC2 ||  
[M:3/4]D< C C C C/ =A,/ G, ||  
[M:2/4]B, B,B,2 | 
G, G, G,/ G,3/ | 
F,> D,C,2 | 
G,2G,3/ F,/ | 
E, E, F,3/ C,/ | 
C,2C, C, | 
C,4- ||  
[M:3/4]C,4D D | 
D< F F F (F/ D/ C) | 
D< C C C (C/ =A,/) G, | 
G,< B, B,< B, G, G, | 
G,< G, F, F, (F,/ D,/) C, ||  
[M:2/4]C,< G, G,/ G,3/ | 
G,< G, (G,/ F,/) E, ||  
[M:3/4]E,< F, (F,/ C,/) C, C,3/ C,/ ||  
[M:2/4]C,4 | 
C,2z2 |]  



